symbolic/64x64/apps/opera.svg

<svg xmlns="http://www.w3.org/2000/svg" width="64" height="64" x="0" y="0" version="1.1">
 <path style="opacity:0.2" d="M 39.5 8 A 21.5 24 0 0 0 26.517578 12.892578 A 14.5 21 0 0 0 22.845703 16.359375 A 14.5 21 0 0 0 21.826172 17.818359 A 14.5 21 0 0 0 21.787109 17.880859 A 14.5 21 0 0 0 20.925781 19.384766 A 14.5 21 0 0 0 20.808594 19.623047 A 14.5 21 0 0 0 20.121094 21.101562 A 14.5 21 0 0 0 19.990234 21.431641 A 14.5 21 0 0 0 19.447266 22.900391 A 14.5 21 0 0 0 19.291016 23.402344 A 14.5 21 0 0 0 18.888672 24.814453 A 14.5 21 0 0 0 18.751953 25.410156 A 14.5 21 0 0 0 18.466797 26.779297 A 14.5 21 0 0 0 18.351562 27.523438 A 14.5 21 0 0 0 18.179688 28.800781 A 14.5 21 0 0 0 18.105469 29.689453 A 14.5 21 0 0 0 18.027344 30.941406 A 14.5 21 0 0 0 18 32 A 14.5 21 0 0 0 18.013672 32.580078 A 14.5 21 0 0 1 18.017578 32.509766 A 14.5 21 0 0 1 26.474609 13.927734 A 21.5 24 0 0 1 26.492188 13.914062 A 14.5 21 0 0 1 32.5 12 A 14.5 21 0 0 1 46.986328 32.419922 A 14.5 21 0 0 0 47 32 A 14.5 21 0 0 0 32.5 11 A 14.5 21 0 0 0 30.546875 11.216797 A 21.5 24 0 0 1 39.5 9 A 21.5 24 0 0 1 52.244141 13.705078 A 28 28 0 0 0 47.591797 9.7988281 A 21.5 24 0 0 0 39.5 8 z M 4.0214844 32.414062 A 28 28 0 0 0 4 33 A 28 28 0 0 0 32 61 A 28 28 0 0 0 52.335938 52.222656 A 28 28 0 0 0 60 33 A 28 28 0 0 0 59.978516 32.585938 A 28 28 0 0 1 47.322266 55.390625 A 28 28 0 0 1 45.939453 56.242188 A 28 28 0 0 1 44.886719 56.818359 A 28 28 0 0 1 43.470703 57.505859 A 28 28 0 0 1 42.3125 57.994141 A 28 28 0 0 1 40.886719 58.517578 A 28 28 0 0 1 39.664062 58.896484 A 28 28 0 0 1 38.203125 59.273438 A 28 28 0 0 1 36.910156 59.535156 A 28 28 0 0 1 35.478516 59.753906 A 28 28 0 0 1 34.117188 59.890625 A 28 28 0 0 1 32.072266 59.998047 A 28 28 0 0 1 32 60 A 28 28 0 0 1 4.0214844 32.414062 z"/>
 <path style="fill:#c0191f" d="M 31.812383,4.9380863 C 16.34841,4.9380863 4.9380863,16.536027 4.9380863,32 4.9380863,47.463973 16.536027,59.249531 32,59.249531 c 6.418719,0 12.332989,-1.409336 17.055711,-5.041847 C 55.710968,49.088751 60,41.045254 60,32 60,23.603615 56.304251,16.070418 50.450732,10.938389 45.523581,6.6185457 38.87997,4.9380863 31.812383,4.9380863 Z M 32.5,11 c 8.008129,0 14.5,9.40202 14.5,21 0,11.59798 -6.491871,21 -14.5,21 -8.008129,0 -15,-9.40202 -15,-21 0,-11.59798 6.991871,-21 15,-21 z"/>
 <path style="fill:#f23845" d="M 32 4 A 28 28 0 0 0 4 32 A 28 28 0 0 0 32 60 A 28 28 0 0 0 52.335938 51.222656 A 21.5 24 0 0 1 39.5 56 A 21.5 24 0 0 1 26.605469 51.167969 A 14.5 21 0 0 1 18.054688 33.699219 A 21.5 24 0 0 1 18.054688 33.697266 A 14.5 21 0 0 1 18 32 A 14.5 21 0 0 1 26.474609 12.927734 A 21.5 24 0 0 1 39.5 8 A 21.5 24 0 0 1 52.244141 12.705078 A 28 28 0 0 0 32 4 z"/>
 <path style="opacity:0.2;fill:#ffffff" d="M 32 4 A 28 28 0 0 0 4 32 A 28 28 0 0 0 4.0214844 32.414062 A 28 28 0 0 1 32 5 A 28 28 0 0 1 47.591797 9.7988281 A 21.5 24 0 0 1 52.244141 12.705078 A 28 28 0 0 0 32 4 z M 18.017578 32.523438 A 14.5 21 0 0 0 18 33 A 14.5 21 0 0 0 18.054688 34.697266 A 21.5 24 0 0 1 18.054688 34.699219 A 14.5 21 0 0 0 26.605469 52.167969 A 21.5 24 0 0 0 39.5 57 A 21.5 24 0 0 0 47.835938 55.074219 A 28 28 0 0 0 52.335938 51.222656 A 21.5 24 0 0 1 39.5 56 A 21.5 24 0 0 1 26.605469 51.167969 A 14.5 21 0 0 1 18.054688 33.699219 A 21.5 24 0 0 1 18.054688 33.697266 A 14.5 21 0 0 1 18.017578 32.523438 z"/>
</svg>

<svg xmlns="http://www.w3.org/2000/svg" width="64" height="64"><path style="opacity:.2" d="M39.5 8a21.5 24 0 0 0-12.982 4.893 14.5 21 0 0 0-3.672 3.466 14.5 21 0 0 0-1.02 1.46 14.5 21 0 0 0-.039.062 14.5 21 0 0 0-.861 1.504 14.5 21 0 0 0-.117.238 14.5 21 0 0 0-.688 1.479 14.5 21 0 0 0-.13.33 14.5 21 0 0 0-.544 1.468 14.5 21 0 0 0-.156.502 14.5 21 0 0 0-.402 1.412 14.5 21 0 0 0-.137.596 14.5 21 0 0 0-.285 1.37 14.5 21 0 0 0-.115.743 14.5 21 0 0 0-.172 1.278 14.5 21 0 0 0-.075.888 14.5 21 0 0 0-.078 1.252A14.5 21 0 0 0 18 32a14.5 21 0 0 0 .014.58 14.5 21 0 0 1 .004-.07 14.5 21 0 0 1 8.457-18.582 21.5 24 0 0 1 .017-.014A14.5 21 0 0 1 32.5 12a14.5 21 0 0 1 14.486 20.42A14.5 21 0 0 0 47 32a14.5 21 0 0 0-14.5-21 14.5 21 0 0 0-1.953.217A21.5 24 0 0 1 39.5 9a21.5 24 0 0 1 12.744 4.705A28 28 0 0 0 47.592 9.8 21.5 24 0 0 0 39.5 8zM4.021 32.414A28 28 0 0 0 4 33a28 28 0 0 0 28 28 28 28 0 0 0 20.336-8.777A28 28 0 0 0 60 33a28 28 0 0 0-.021-.414A28 28 0 0 1 47.322 55.39a28 28 0 0 1-1.383.851 28 28 0 0 1-1.052.576 28 28 0 0 1-1.416.688 28 28 0 0 1-1.158.488 28 28 0 0 1-1.426.524 28 28 0 0 1-1.223.378 28 28 0 0 1-1.46.377 28 28 0 0 1-1.294.262 28 28 0 0 1-1.431.219 28 28 0 0 1-1.362.137 28 28 0 0 1-2.045.107A28 28 0 0 1 32 60 28 28 0 0 1 4.021 32.414z"/><path style="fill:#c0191f" d="M31.812 4.938C16.348 4.938 4.938 16.536 4.938 32S16.536 59.25 32 59.25c6.419 0 12.333-1.41 17.056-5.042C55.71 49.088 60 41.045 60 32c0-8.396-3.696-15.93-9.55-21.062-4.926-4.32-11.57-6-18.638-6zM32.5 11C40.508 11 47 20.402 47 32s-6.492 21-14.5 21-15-9.402-15-21 6.992-21 15-21z"/><path style="fill:#f23845" d="M32 4A28 28 0 0 0 4 32a28 28 0 0 0 28 28 28 28 0 0 0 20.336-8.777A21.5 24 0 0 1 39.5 56a21.5 24 0 0 1-12.895-4.832 14.5 21 0 0 1-8.55-17.469 21.5 24 0 0 1 0-.002A14.5 21 0 0 1 18 32a14.5 21 0 0 1 8.475-19.072A21.5 24 0 0 1 39.5 8a21.5 24 0 0 1 12.744 4.705A28 28 0 0 0 32 4z"/><path style="opacity:.2;fill:#fff" d="M32 4A28 28 0 0 0 4 32a28 28 0 0 0 .021.414A28 28 0 0 1 32 5a28 28 0 0 1 15.592 4.799 21.5 24 0 0 1 4.652 2.906A28 28 0 0 0 32 4zM18.018 32.523A14.5 21 0 0 0 18 33a14.5 21 0 0 0 .055 1.697 21.5 24 0 0 1 0 .002 14.5 21 0 0 0 8.55 17.469A21.5 24 0 0 0 39.5 57a21.5 24 0 0 0 8.336-1.926 28 28 0 0 0 4.5-3.851A21.5 24 0 0 1 39.5 56a21.5 24 0 0 1-12.895-4.832 14.5 21 0 0 1-8.55-17.469 21.5 24 0 0 1 0-.002 14.5 21 0 0 1-.037-1.174z"/></svg>
